X: 17
T: Se pis ne vient d'amours je me contente
N: Derived from Com3036-Se_pis_ne_vient_damours_je_me_contente.krn
C: Loyset Comp\`ere
%%abc-version 2.0
%%abcx-abcm2ps-target-version 5.9.1 (29 Sep 2008)
%%abc-creator hum2abc beta
%%abcx-conversion-date 2019/02/16 20:28:09
%%abc-edited-by Jesse Rodin
%%abc-edited-by Megan K. Eagen 2013/12/01
%%abcx-initial-encoding-date 2013/12/01/
%%humdrum-veritas 2388623131
%%humdrum-veritas-data 305554510
%%linebreak <none>
%%barnumbers 0
L: 1/4
M: 2/1
Q: 1/2=120
V: 1 clef=treble
V: 2 clef=treble-8
V: 3 clef=bass
K: C
[V:1] z8 | 
[V:2] D4G4 | 
[V:3] D,4C,4 | 
[V:1] z8 | 
[V:2] G2A4A2 | 
[V:3] B,,2C,4B,,A,, | 
[V:1] D4G4 | 
[V:2] B8 | 
[V:3] G,,4z2G,2- | 
[V:1] G2A4A2 | 
[V:2] z4A4 | 
[V:3] G,2D,2F,4 | 
[V:1] B4z2B2 | 
[V:2] d8 | 
[V:3] G,6F,E, | 
[V:1] B4c2B2- | 
[V:2] d4e4 | 
[V:3] D,2G,2C,2G,2 | 
[V:1] BAA4^G2 | 
[V:2] c2BAB4 | 
[V:3] A,2F,2E,4 | 
[V:1] A8 | 
[V:2] A4c4 | 
[V:3] z2F,2F,4 | 
[V:1] z2A2A4 | 
[V:2] c4c4 | 
[V:3] F,4F,4- | 
[V:1] A4G4 | 
[V:2] c4z2c2 | 
[V:3] F,4E,4 | 
[V:1] z2c2c2B2 | 
[V:2] e2e2d4 | 
[V:3] C,4G,4 | 
[V:1] c4B2A2- | 
[V:2] c4d3c | 
[V:3] A,4G,2D,2 | 
[V:1] AGG4^F2 | 
[V:2] B2G2A4 | 
[V:3] E,4D,4 | 
[V:1] G4z2F2 | 
[V:2] G3ABcd2- | 
[V:3] z2E,4D,2 | 
[V:1] E4D4 | 
[V:2] d2c2c2B2 | 
[V:3] G,2C,2G,4 | 
[V:1] C4z2E2 | 
[V:2] c8 | 
[V:3] C,8- | 
[V:1] E4E4 | 
[V:2] z4c4 | 
[V:3] C,8 | 
[V:1] D3EFGA2- | 
[V:2] d6c2 | 
[V:3] G,4D,2F,2 | 
[V:1] AGG4F2 | 
[V:2] B2AGA2A2 | 
[V:3] G,2F,E,D,4 | 
[V:1] G2A4GF | 
[V:2] G2c4BA | 
[V:3] E,2F,2D,4 | 
[V:1] E16 | 
[V:2] c16 | 
[V:3] C,16 | 
[V:1] z4E4 | 
[V:2] z4c4 | 
[V:3] z4C,4 | 
[V:1] E4E2D2- | 
[V:2] c4c2B2- | 
[V:3] C,4C,2G,2- | 
[V:1] D2G4^F2 | 
[V:2] B2AGA4 | 
[V:3] G,F,E,2D,4 | 
[V:1] G8 | 
[V:2] G4z2G2 | 
[V:3] z2G,4F,E, | 
[V:1] z8 | 
[V:2] A4B4 | 
[V:3] D,2C,2D,4 | 
[V:1] G4A4 | 
[V:2] c6BA | 
[V:3] C,4F,4 | 
[V:1] B4c4 | 
[V:2] G4A2B2 | 
[V:3] E,2G,2F,2G,2 | 
[V:1] B2A4^G2 | 
[V:2] c2d2B4 | 
[V:3] A,2D,2E,4 | 
[V:1] A8 | 
[V:2] A4c4 | 
[V:3] A,,4z2A,2- | 
[V:1] z4c4 | 
[V:2] B2AGA2A2 | 
[V:3] A,2G,4F,2 | 
[V:1] B2AGA2A2 | 
[V:2] G4z2c2 | 
[V:3] G,2E,2F,4 | 
[V:1] G4z2D2 | 
[V:2] c2B2c2d2 | 
[V:3] E,2G,2F,2E,D, | 
[V:1] G2G2A2B2 | 
[V:2] e4d3c/B/ | 
[V:3] C,4z2G,2 | 
[V:1] c3Bc2B2- | 
[V:2] ABcde2d2- | 
[V:3] F,2A,3E,G,2 | 
[V:1] BAA4^G2 | 
[V:2] dcBAB4 | 
[V:3] D,2F,2E,4 | 
[V:1] A8 |]  
[V:2] A8 |]  
[V:3] A,,8 |]  



